X: 1
T: Shottish efter Anders Alml\"of
R:
O: Anders Alml\"of
N: Learned from Anders Alml\"of Aug 1998
B:
D:
Z: 1998 by John Chambers <jc:trillian.mit.edu>
M: 4/4
L: 1/8
K: DDor
|: "A7"A>B ^cd e2 ef | "(Dm)"d2 de "A7"^c4 \
|1 A>B ^cd e2 ef | ~g2 fg a4 \
:|2 "Dm"d>e fg "A7"a>g e^c | "Dm"d2 "(A)"{e}d^c "Dm"d4 :|
|: "A7"a>g ef g2 ~gf/g/ | "Dm"a>f de f4 \
| "A7"e>^c Ac e>^c Ac |1 "Dm"d>e fg "(A)"a4 :|2 "Dm"d2 "(A)"{e}d^c "Dm"d4 :|
